X:80
T:The Fox in the Chicken Coop
B:Terry "Cuz" Teahan "Sliabh Luachra on Parade" 1980
Z:Patrick Cavanagh
M:2/4
L:1/8
R:Polka
K:D
| DF/E/ DF | AF EF | GB/A/ GE | c/B/A GE | 
DF/E/ DF | AF DF | GG/F/ GC | ED D2 :| 
| d2 cB | BA FA | EF GE | BA FA | 
d2 cB | BA FA | FG GC | ED D2 :|| 

